X:295
T:
R:polska
S:Meddelad av skoll. S. P. Dalström i Hejde.
O:Gotland, Hejde
M:3/4
L:1/16
K:A
E2Ac e2cA c2E2|A2ce a2f^d b2B2|B2Ba g2gb B2a2|gfe^d e2g2 E2 z2::
EBdB GBeB EBdB|cBcd e2fe dcBA|GBeB EdeB GBed|cBcd e2fe dcBA|
BcBA BcBA BcBA&G2G2 G2G2 G2G2|GABc d4 c4::dcBc A2a2g2a2|
fdcd B2a2g2a2|e2fg a2e2f2d2|ceGB B4 A4:|

